X:265
T7
T:Dog innert House
Z: id:dc-reel-54
M:C
L:1/8
K:G Major
B2c|dFG ABc|BAG AGA|cBA BGB|cAF G2:|!
B|deg fef|g2e fed|BAB gfg|BcB BAG|!
FGA AFd|AFd ABd|faf gfe|d2B G2B|!
dcB AGF|fgf ece|dcB AFA|B2c d2|!
ef/e/ ce|fe cB|A2 A2:|!
ea ag|!